X: 21189
T: Katie Scollard's
R: slide
M: 12/8
K: Amixolydian
A2 B|:e2 A cBA e2 A d2 f|e2 c B/c/BA d3 faf|
e2 A Bcd e2 A d2 f|1 efe d2 B A3 A2 B:|2 efe d2 B A3 A2||
z|a2 g e2 a g2 e d2 g|a2 g e2 g a3 b3|
a2 g e2 a g2 e d2 f|efe d2 B A3 A2:|

